img/icons/service-icon1.svg

<svg width="60" height="60" viewBox="0 0 60 60" fill="none" xmlns="http://www.w3.org/2000/svg">
<path fill-rule="evenodd" clip-rule="evenodd" d="M15 22.5H20H25L35 22.5H40L45 22.5H50V27.5L40 27.5H20H10V22.5H15ZM37.5 32.5V35C37.5 36.3807 38.6193 37.5 40 37.5C41.3807 37.5 42.5 36.3807 42.5 35V32.5L50 32.5V42.5V47.5H45L15 47.5H10L10 42.5L10 32.5L17.5 32.5V35C17.5 36.3807 18.6193 37.5 20 37.5C21.3807 37.5 22.5 36.3807 22.5 35V32.5L37.5 32.5ZM50 17.5L40 17.5V15C40 10.8579 36.6421 7.5 32.5 7.5H27.5C23.3579 7.5 20 10.8579 20 15V17.5H10C7.23857 17.5 5 19.7386 5 22.5V47.5C5 50.2614 7.23857 52.5 10 52.5L50 52.5C52.7614 52.5 55 50.2614 55 47.5V22.5C55 19.7386 52.7614 17.5 50 17.5ZM32.5 17.5H35V15C35 13.6199 33.8817 12.5009 32.5017 12.5L32.5 12.5L27.5 12.5L27.4983 12.5C26.1183 12.5009 25 13.6199 25 15V17.5H27.5L30 17.5H32.5Z" fill="#E3000F"/>
</svg>

<svg width="60" height="60" fill="none" xmlns="http://www.w3.org/2000/svg"><path fill-rule="evenodd" clip-rule="evenodd" d="M15 22.5h35v5H10v-5h5zm22.5 10V35a2.5 2.5 0 005 0v-2.5H50v15H10v-15h7.5V35a2.5 2.5 0 005 0v-2.5h15zm12.5-15H40V15a7.5 7.5 0 00-7.5-7.5h-5A7.5 7.5 0 0020 15v2.5H10a5 5 0 00-5 5v25a5 5 0 005 5h40a5 5 0 005-5v-25a5 5 0 00-5-5zm-17.5 0H35V15a2.5 2.5 0 00-2.498-2.5h-5.004A2.5 2.5 0 0025 15v2.5h7.5z" fill="#E3000F"/></svg>
